assets/layer1.svg

<?xml version="1.0" encoding="UTF-8"?><svg xmlns="http://www.w3.org/2000/svg" viewBox="0 0 1108.84 1202.77"><defs><style>.cls-1{opacity:0;}.cls-2{fill:#56DB8B;opacity:.5;}</style></defs><g id="Layer_1"><rect class="cls-1" y="160.93" width="1024" height="1024"/></g><g id="Layer_2"><path class="cls-2" d="M862.74,783.15c-14.81,28.62-42.79,48.19-71.86,62.08-66.97,31.98-142.84,39.18-216.98,42.31-89.35,3.78-179.55,2.29-267.11-15.89-34.31-7.13-71.58-19.41-88.67-49.99-19.91-35.63-3.84-80.71,18.72-114.72,22.57-34.01,52.07-65.28,61.25-105.04,.9-3.89,1.59-7.77,2.08-11.65,1.07-8.33,6.95-15.28,15.05-17.5,36.18-9.95,62.58-43.53,61.55-83.09-1.15-44.32-37.22-80.4-81.53-81.58-7.97-.21-15.69,.69-23.02,2.56-4.96,1.26-9.8-2.35-10.25-7.45-.88-10-.88-20.03,.34-30.11,6.64-54.79,50.48-100.64,102.39-119.38,138.19-49.91,280.36,56.65,362.72,158.23,6.72,8.3,13.23,16.75,19.53,25.36,43.9,59.95,77.74,127.07,105.03,196.28,18.94,48.02,34.49,103.75,10.76,149.59Z"/><path class="cls-2" d="M496.53,1169.44c-31.3-19.44-56.79-46.94-70.33-81.23-19.37-49.05-12.27-105.61,9.2-153.78,59.15-132.68,201.66-227.24,341.74-253.09,99.93-18.44,247.07-9.06,312.35,81.29,59.14,81.85-30.96,182.08-87.28,237.19-56.88,55.66-122.56,107.57-192.72,145.62-64.37,34.91-136.13,61.39-209.22,56.81-36.3-2.28-72.86-13.62-103.75-32.81Z"/></g></svg>

<svg width="1109" height="1203" viewBox="0 0 1109 1203" fill="none" xmlns="http://www.w3.org/2000/svg">
<g clip-path="url(#clip0_6_10)">
<path opacity="0.5" d="M862.74 783.15C847.93 811.77 819.95 831.34 790.88 845.23C723.91 877.21 648.04 884.41 573.9 887.54C484.55 891.32 394.35 889.83 306.79 871.65C272.48 864.52 235.21 852.24 218.12 821.66C198.21 786.03 214.28 740.95 236.84 706.94C259.41 672.93 288.91 641.66 298.09 601.9C298.99 598.01 299.68 594.13 300.17 590.25C301.24 581.92 307.12 574.97 315.22 572.75C351.4 562.8 377.8 529.22 376.77 489.66C375.62 445.34 339.55 409.26 295.24 408.08C287.27 407.87 279.55 408.77 272.22 410.64C267.26 411.9 262.42 408.29 261.97 403.19C261.09 393.19 261.09 383.16 262.31 373.08C268.95 318.29 312.79 272.44 364.7 253.7C502.89 203.79 645.06 310.35 727.42 411.93C734.14 420.23 740.65 428.68 746.95 437.29C790.85 497.24 824.69 564.36 851.98 633.57C870.92 681.59 886.47 737.32 862.74 783.16V783.15Z" fill="#42D9EB"/>
<path opacity="0.5" d="M496.53 1169.44C465.23 1150 439.74 1122.5 426.2 1088.21C406.83 1039.16 413.93 982.6 435.4 934.43C494.55 801.75 637.06 707.19 777.14 681.34C877.07 662.9 1024.21 672.28 1089.49 762.63C1148.63 844.48 1058.53 944.71 1002.21 999.82C945.33 1055.48 879.65 1107.39 809.49 1145.44C745.12 1180.35 673.36 1206.83 600.27 1202.25C563.97 1199.97 527.41 1188.63 496.52 1169.44H496.53Z" fill="#42D9EB"/>
</g>
<defs>
<clipPath id="clip0_6_10">
<rect width="1108.84" height="1202.77" fill="white"/>
</clipPath>
</defs>
</svg>
